build/flags/Philippines.svg

<svg xmlns="http://www.w3.org/2000/svg" fill="none" viewBox="0 0 28 28" focusable="false"><defs><filter id="Philippines_svg__a"><feColorMatrix values="0 0 0 0 1 0 0 0 0 1 0 0 0 0 1 0 0 0 1 0"/></filter></defs><mask id="Philippines_svg__b" width="28" height="20" x="0" y="4" maskUnits="userSpaceOnUse"><g filter="url(#Philippines_svg__a)"><rect width="28" height="20" y="4" fill="#FFF" rx="3"/><rect width="27.5" height="19.5" x=".25" y="4.25" stroke="#F5F5F5" stroke-width=".5" rx="2.75"/></g></mask><path fill="none" d="M0 0H28V28H0z"/><rect width="28" height="20" y="4" fill="#FFF" rx="3"/><rect width="27.5" height="19.5" x=".25" y="4.25" stroke="#D6D8DD" stroke-width=".5" rx="2.75"/><g mask="url(#Philippines_svg__b)"><path fill="#DD1C34" fill-rule="evenodd" d="M0 24L28 24L28 13.3334L12.4444 13.3334L13.3333 14L0 24Z"/><path d="M0 24L28 24L28 13.3334L12.4444 13.3334L13.3333 14L0 24Z"/><path fill="#0D4BC3" fill-rule="evenodd" d="M0 4L12.4444 13.3333L28 13.3333L28 4L0 4Z"/><path d="M0 4L12.4444 13.3333L28 13.3333L28 4L0 4Z"/><path fill="#FDD64D" fill-rule="evenodd" d="M2.66668 7.33335C2.66668 7.70154 2.3682 8.00002 2.00001 8.00002C1.63182 8.00002 1.33334 7.70154 1.33334 7.33335C1.33334 6.96516 1.63182 6.66669 2.00001 6.66669C2.3682 6.66669 2.66668 6.96516 2.66668 7.33335ZM4.80127 15.3266C4.75701 15.3311 4.71211 15.3334 4.66668 15.3334C4.62125 15.3334 4.57635 15.3311 4.53209 15.3266L3.39107 17.0796L3.8238 15.0332C3.75416 14.9763 3.69038 14.9125 3.63351 14.8429L1.58708 15.2756L3.34005 14.1346C3.33562 14.0904 3.33334 14.0455 3.33334 14C3.33334 13.9546 3.33562 13.9097 3.34005 13.8654L1.58708 12.7244L3.63351 13.1571C3.69038 13.0875 3.75416 13.0237 3.8238 12.9669L3.39107 10.9204L4.53209 12.6734C4.57635 12.669 4.62125 12.6667 4.66668 12.6667C4.71211 12.6667 4.75701 12.669 4.80127 12.6734L5.94229 10.9204L5.50956 12.9669C5.57919 13.0237 5.64297 13.0875 5.69985 13.1571L7.74628 12.7244L5.9933 13.8654C5.99774 13.9097 6.00001 13.9546 6.00001 14C6.00001 14.0455 5.99774 14.0904 5.9933 14.1346L7.74628 15.2756L5.69985 14.8429C5.64297 14.9125 5.57919 14.9763 5.50956 15.0332L5.94229 17.0796L4.80127 15.3266ZM10.6667 14C10.6667 14.3682 10.3682 14.6667 10 14.6667C9.63182 14.6667 9.33334 14.3682 9.33334 14C9.33334 13.6318 9.63182 13.3334 10 13.3334C10.3682 13.3334 10.6667 13.6318 10.6667 14ZM2.66668 20.6667C2.66668 21.0349 2.3682 21.3334 2.00001 21.3334C1.63182 21.3334 1.33334 21.0349 1.33334 20.6667C1.33334 20.2985 1.63182 20 2.00001 20C2.3682 20 2.66668 20.2985 2.66668 20.6667Z"/><path d="M2.66668 7.33335C2.66668 7.70154 2.3682 8.00002 2.00001 8.00002C1.63182 8.00002 1.33334 7.70154 1.33334 7.33335C1.33334 6.96516 1.63182 6.66669 2.00001 6.66669C2.3682 6.66669 2.66668 6.96516 2.66668 7.33335ZM4.80127 15.3266C4.75701 15.3311 4.71211 15.3334 4.66668 15.3334C4.62125 15.3334 4.57635 15.3311 4.53209 15.3266L3.39107 17.0796L3.8238 15.0332C3.75416 14.9763 3.69038 14.9125 3.63351 14.8429L1.58708 15.2756L3.34005 14.1346C3.33562 14.0904 3.33334 14.0455 3.33334 14C3.33334 13.9546 3.33562 13.9097 3.34005 13.8654L1.58708 12.7244L3.63351 13.1571C3.69038 13.0875 3.75416 13.0237 3.8238 12.9669L3.39107 10.9204L4.53209 12.6734C4.57635 12.669 4.62125 12.6667 4.66668 12.6667C4.71211 12.6667 4.75701 12.669 4.80127 12.6734L5.94229 10.9204L5.50956 12.9669C5.57919 13.0237 5.64297 13.0875 5.69985 13.1571L7.74628 12.7244L5.9933 13.8654C5.99774 13.9097 6.00001 13.9546 6.00001 14C6.00001 14.0455 5.99774 14.0904 5.9933 14.1346L7.74628 15.2756L5.69985 14.8429C5.64297 14.9125 5.57919 14.9763 5.50956 15.0332L5.94229 17.0796L4.80127 15.3266ZM10.6667 14C10.6667 14.3682 10.3682 14.6667 10 14.6667C9.63182 14.6667 9.33334 14.3682 9.33334 14C9.33334 13.6318 9.63182 13.3334 10 13.3334C10.3682 13.3334 10.6667 13.6318 10.6667 14ZM2.66668 20.6667C2.66668 21.0349 2.3682 21.3334 2.00001 21.3334C1.63182 21.3334 1.33334 21.0349 1.33334 20.6667C1.33334 20.2985 1.63182 20 2.00001 20C2.3682 20 2.66668 20.2985 2.66668 20.6667Z"/></g></svg>

<svg xmlns="http://www.w3.org/2000/svg" fill="none" viewBox="0 0 28 28" focusable="false"><path fill="none" d="M0 0h28v28H0z"/><rect width="28" height="20" y="4" fill="#FFF" rx="3"/><rect width="27.5" height="19.5" x=".25" y="4.25" stroke="#D6D8DD" stroke-width=".5" rx="3"/><mask id="Philippines_svg__a" width="28" height="20" x="0" y="4" mask-type="alpha" maskUnits="userSpaceOnUse"><rect width="28" height="20" y="4" fill="#FFF" rx="3"/><rect width="27.5" height="19.5" x=".25" y="4.25" stroke="#F5F5F5" stroke-width=".5" rx="3"/></mask><g mask="url(#Philippines_svg__a)"><mask id="Philippines_svg__b" fill="#fff"><path fill-rule="evenodd" d="M0 24h28V13.333H12.445l.888.667z" clip-rule="evenodd"/></mask><path fill="#DD1C34" fill-rule="evenodd" d="M0 24h28V13.333H12.445l.888.667z" clip-rule="evenodd" mask="url(#Philippines_svg__b)"/></g><g mask="url(#Philippines_svg__a)"><mask id="Philippines_svg__c" fill="#fff"><path fill-rule="evenodd" d="m0 4 12.445 9.333H28V4z" clip-rule="evenodd"/></mask><path fill="#0D4BC3" fill-rule="evenodd" d="m0 4 12.445 9.333H28V4z" clip-rule="evenodd" mask="url(#Philippines_svg__c)"/></g><g mask="url(#Philippines_svg__a)"><mask id="Philippines_svg__d" fill="#fff"><path fill-rule="evenodd" d="M2 8a.667.667 0 1 0 0-1.333A.667.667 0 0 0 2 8m2.532 7.327L3.391 17.08l.433-2.047a1.4 1.4 0 0 1-.19-.19l-2.047.433 1.753-1.141a1.3 1.3 0 0 1 0-.27l-1.753-1.14 2.047.432q.085-.105.19-.19L3.39 10.92l1.141 1.753a1.4 1.4 0 0 1 .27 0l1.14-1.753-.432 2.047q.105.085.19.19l2.046-.433-1.753 1.141a1.4 1.4 0 0 1 0 .27l1.753 1.14-2.046-.432q-.085.105-.19.19l.432 2.047-1.14-1.753a1.3 1.3 0 0 1-.27 0m5.468-.66a.667.667 0 1 0 0-1.334.667.667 0 0 0 0 1.334m-7.333 6a.667.667 0 1 1-1.334 0 .667.667 0 0 1 1.334 0" clip-rule="evenodd"/></mask><path fill="#FDD64D" fill-rule="evenodd" d="M2 8a.667.667 0 1 0 0-1.333A.667.667 0 0 0 2 8m2.532 7.327L3.391 17.08l.433-2.047a1.4 1.4 0 0 1-.19-.19l-2.047.433 1.753-1.141a1.3 1.3 0 0 1 0-.27l-1.753-1.14 2.047.432q.085-.105.19-.19L3.39 10.92l1.141 1.753a1.4 1.4 0 0 1 .27 0l1.14-1.753-.432 2.047q.105.085.19.19l2.046-.433-1.753 1.141a1.4 1.4 0 0 1 0 .27l1.753 1.14-2.046-.432q-.085.105-.19.19l.432 2.047-1.14-1.753a1.3 1.3 0 0 1-.27 0m5.468-.66a.667.667 0 1 0 0-1.334.667.667 0 0 0 0 1.334m-7.333 6a.667.667 0 1 1-1.334 0 .667.667 0 0 1 1.334 0" clip-rule="evenodd" mask="url(#Philippines_svg__d)"/></g></svg>
